svgs/regular/ruler-horizontal.svg

<svg xmlns="http://www.w3.org/2000/svg" viewBox="0 0 640 512"><!--! Font Awesome Pro 6.4.2 by @fontawesome - https://fontawesome.com License - https://fontawesome.com/license (Commercial License) Copyright 2023 Fonticons, Inc. --><path d="M48 320c0 8.8 7.2 16 16 16l512 0c8.8 0 16-7.2 16-16V192c0-8.8-7.2-16-16-16l-48 0v48c0 8.8-7.2 16-16 16s-16-7.2-16-16V176l-64 0v48c0 8.8-7.2 16-16 16s-16-7.2-16-16V176l-64 0v48c0 8.8-7.2 16-16 16s-16-7.2-16-16V176l-64 0v48c0 8.8-7.2 16-16 16s-16-7.2-16-16V176l-64 0v48c0 8.8-7.2 16-16 16s-16-7.2-16-16V176l-48 0c-8.8 0-16 7.2-16 16l0 128zm16 64c-35.3 0-64-28.7-64-64V192c0-35.3 28.7-64 64-64H576c35.3 0 64 28.7 64 64V320c0 35.3-28.7 64-64 64L64 384z"/></svg>

<svg xmlns="http://www.w3.org/2000/svg" viewBox="0 0 640 512"><!--! Font Awesome Pro 6.1.1 by @fontawesome - https://fontawesome.com License - https://fontawesome.com/license (Commercial License) Copyright 2022 Fonticons, Inc. --><path d="M64 384C28.65 384 0 355.3 0 320V192C0 156.7 28.65 128 64 128H576C611.3 128 640 156.7 640 192V320C640 355.3 611.3 384 576 384H64zM64 336H576C584.8 336 592 328.8 592 320V192C592 183.2 584.8 176 576 176H528V224C528 232.8 520.8 240 512 240C503.2 240 496 232.8 496 224V176H432V224C432 232.8 424.8 240 416 240C407.2 240 400 232.8 400 224V176H336V224C336 232.8 328.8 240 320 240C311.2 240 304 232.8 304 224V176H240V224C240 232.8 232.8 240 224 240C215.2 240 208 232.8 208 224V176H144V224C144 232.8 136.8 240 128 240C119.2 240 112 232.8 112 224V176H64C55.16 176 48 183.2 48 192V320C48 328.8 55.16 336 64 336z"/></svg>
